X: 1
T: Farewell
M: 3/4
L: 1/8
R: waltz
K: Gmaj
G4A2|B6|d4B2|A2G4|G4A2|B4A2|B2d4|e6|
d4B2|g4f2|e4d2|d2B4|G3AGF|E4D2|D2E4|G6|
d4e2| gfgagf |e4d2|d2B4|d4B2|g4B2|A2G4|E6|
G4 EG|E D3E2|G4A2|B2d4|e4d2|g4B2|A4G2|G6|
